X:1
T:Title
%%score { ( 1 4 ) | ( 2 3 ) }
L:1/8
Q:1/4=100
M:6/8
K:G
V:1 treble nm="Grand Piano"
V:4 treble 
V:2 treble 
V:3 treble 
V:1
 B2 B Bc[DGd] | F3 z3 | AB[EGc] [DFB]2 [CFA] | G3 D3 | G2 G GAB | A2 F [B,D]3 | .E3 z3 | D6 | %8
w: Maltbie~Babcock * * * *||||||||
 c2 c cde | [Ec]2 B [CFA]3 | D-[DA]G F2 E | E3 D3 | B2 B Bcd | B2 A [G,=FG]3 | %14
w: ||||||
 AB[^DGc] [=DFB]2 [CFA] | [B,DG]6 |] %16
w: ||
V:2
 z3 .[DG]3 | z2 C E,2 D, | C,B,,A,, D,2 D, | [G,B,D]3 [F,B,]3 | [E,B,D]2 [E,B,D] B,A,[E,G,^C] | %5
 [A,D]3 z3 | G,,F,,E,, A,,2 A,, | [D,F,]6 | [A,EG]2 [A,EG] ED[A,CG] | z2 D D,3 | %10
 z C[D,B,D] [D,A,C]2 [D,G,C] | [D,F,C]6 | [G,DG]2 [G,DG] DC[G,B,=F] | G,3 z3 | C,B,,A,, D,2 D, | %15
 G,,6 |] %16
V:3
 [G,DG]2 [G,DG] G,A,B, | D,3 z3 | x6 | x6 | z3 .[E,^C]3 | F,2 D, B,,2 A,, | x6 | x6 | z3 .[A,G]3 | %9
 D,3 z3 | .D,3 z3 | x6 | z3 .[G,=F]3 | D,2 C, B,,3 | x6 | x6 |] %16
V:4
 x6 | [DB]2 A [B,EG]3 | .[EG]3 z3 | x6 | x6 | x6 | [B,D]-[B,DF][_B,DG] [A,^CF]2 [G,CE] | x6 | x6 | %9
 F3 z3 | .[B,G]3 z3 | x6 | x6 | =F3 z3 | .[EG]3 z3 | x6 |] %16

